packages/foundations/assets/icons/functional/images/medical/medical_cross_32.svg

<svg width="32" height="32" viewBox="0 0 32 32" fill="none" xmlns="http://www.w3.org/2000/svg">
<g clip-path="url(#clip0_186_224)">
<path fill-rule="evenodd" clip-rule="evenodd" d="M18 4C19.6569 4 21 5.34315 21 7V11H25C26.6569 11 28 12.3431 28 14V18C28 19.6569 26.6569 21 25 21H21V25C21 26.6569 19.6569 28 18 28H14C12.3431 28 11 26.6569 11 25V21H7C5.34315 21 4 19.6569 4 18V14C4 12.3431 5.34315 11 7 11H11V7C11 5.34315 12.3431 4 14 4H18ZM18 6H14C13.4872 6 13.0645 6.38604 13.0067 6.88338L13 7V13H7C6.48716 13 6.06449 13.386 6.00673 13.8834L6 14V18C6 18.5128 6.38604 18.9355 6.88338 18.9933L7 19H13V25C13 25.5128 13.386 25.9355 13.8834 25.9933L14 26H18C18.5128 26 18.9355 25.614 18.9933 25.1166L19 25V19H25C25.5128 19 25.9355 18.614 25.9933 18.1166L26 18V14C26 13.4872 25.614 13.0645 25.1166 13.0067L25 13H19V7C19 6.48716 18.614 6.06449 18.1166 6.00673L18 6Z" fill="#1A1C1F"/>
</g>
<defs>
<clipPath id="clip0_186_224">
<rect width="32" height="32" fill="white"/>
</clipPath>
</defs>
</svg>

<svg xmlns="http://www.w3.org/2000/svg" width="32" height="32" fill="none"><g clip-path="url(#a)"><path fill="#1A1C1F" fill-rule="evenodd" d="M18 4a3 3 0 0 1 3 3v4h4a3 3 0 0 1 3 3v4a3 3 0 0 1-3 3h-4v4a3 3 0 0 1-3 3h-4a3 3 0 0 1-3-3v-4H7a3 3 0 0 1-3-3v-4a3 3 0 0 1 3-3h4V7a3 3 0 0 1 3-3zm0 2h-4a1 1 0 0 0-.993.883L13 7v6H7a1 1 0 0 0-.993.883L6 14v4a1 1 0 0 0 .883.993L7 19h6v6a1 1 0 0 0 .883.993L14 26h4a1 1 0 0 0 .993-.883L19 25v-6h6a1 1 0 0 0 .993-.883L26 18v-4a1 1 0 0 0-.883-.993L25 13h-6V7a1 1 0 0 0-.883-.993z" clip-rule="evenodd"/></g><defs><clipPath id="a"><path fill="#fff" d="M0 0h32v32H0z"/></clipPath></defs></svg>
